UI/Misc/SVG/calculator_outline_24px.svg

<svg width="24" height="24" viewBox="0 0 24 24" fill="none" xmlns="http://www.w3.org/2000/svg">
<path d="M3 2V20C3 20.5304 3.21071 21.0391 3.58579 21.4142C3.96086 21.7893 4.46957 22 5 22H19C19.5304 22 20.0391 21.7893 20.4142 21.4142C20.7893 21.0391 21 20.5304 21 20V2H3ZM19 20H5V4H19V20ZM17 8H7V6H17V8ZM9 14H7V12H9V14ZM11 12H13V14H11V12ZM15 12H17V14H15V12ZM9 18H7V16H9V18ZM11 16H13V18H11V16ZM15 16H17V18H15V16Z" fill="#0F1621"/>
</svg>

<svg xmlns="http://www.w3.org/2000/svg" width="24" height="24" viewBox="0 0 24 24"><rect width="24" height="24" style="fill:none"/><path d="M3,2V20a2,2,0,0,0,2,2H19a2,2,0,0,0,2-2V2ZM19,20H5V4H19ZM17,8H7V6H17ZM9,14H7V12H9Zm2-2h2v2H11Zm4,0h2v2H15ZM9,18H7V16H9Zm2-2h2v2H11Zm4,0h2v2H15Z"/></svg>
